X:40
T:Mille ducas
C:Tielman Susato
B:Tielman Susato: "Danserye" (1551) no. 40
R:Pavane
Z:Transcribed by Frank Nordberg - http://www.musicaviva.com
F:http://abc.musicaviva.com/tunes/susato-tielman/susato-1551-40/susato-1551-40-4m.abc
M:4/2 
L:1/2
K:Ddor
V:1
DDEE|FFGE|EEFE|DD^C2|DDEE|FFGE|EEFE/D/|
^C/B,/^CD2|E>E F/G/A/G/|F/E/DC>D|EEF2|EDE2|CCDB,|CA,B,C|
D2F2|ED2^C|D2CC|DB,CA,|B,CD2|F2ED-|D^CD2:|
V:2
A,A,/A,/CC|DDB,C|C>B,A,C|A,B,A,2|A,A,/A,/CC|DDB,C|C>B,A,B,|
A,2A,2|CC/C/DC|F,G,A,>A,|CCC2|CA,A,2|E,E,D,D,|A,CB,A,|
D,A,C2|CA,A,2|A,2E,E,|D,D,A,C|B,A,D,A,|C2CA,|A,2A,2:|
V:3
F,F,G,A,|A,B,G,A,|A,G,F,A,|F,G,E,2|F,F,/F,/A,A,|A,B,G,A,|A,G,F,/A,/G,/F,/|
E,/D,/E,D,2|G,>G, A,/G,/F,/E,/|D,D,E,>F,|G,G,A,2|G,F,E,2|A,A,F,G,|E,F,D,C,|
F,2A,2|G,/F,/E,/D,/E,2|D,2A,A,|F,G,E,F,|D,C,F,2|A,2G,/F,/E,/D,/|E,2D,2:|
V:4
D,D,C,A,,|D,D,E,A,,|C,C,D,A,,|D,G,,A,,2|D,D,/D,/A,,A,,|D,D,E,A,,|C,C,D,G,,|
A,,2D,2|C,>E,D,A,,|_B,,2A,,>D,|C,C,F,,2|C,D,A,,2|A,,A,,_B,,G,,|A,,F,,G,,A,,|
_B,,A,,/G,,/ F,,/G,,/A,,/B,,/|C,D,A,,2|D,2A,,A,,|_B,,G,,A,,F,,|G,,A,,_B,,A,,/G,,/|F,,/G,,/A,,/B,,/C,D,|A,,2D,2:|
W:
W:
W:  From Musica Viva - http://www.musicaviva.com
W:  the Internet center for free sheet music downloads.
